X: 187
T: Meilide gu niang
%%abc-version 2.0
%%abcx-abcm2ps-target-version 5.9.1 (29 Sep 2008)
%%abc-creator hum2abc beta
%%abcx-conversion-date 2013/10/02 07:44:28
%%abc-edited-by Helmut Schaffrath
%%humdrum-veritas 2518629916
%%humdrum-veritas-data 1788751680
%%continueall 1
%%barnumbers 0
L: 1/8
M: 3/4
K: G
d d/ d/ g f [I:setbarnb 1]| 
e f g ed2 | 
d d g f e f/ a/ | 
[M:2/4]g4- | 
g4 | 
d d g3/ f/ | 
[M:3/4]e f/ f/ g e d B | 
[M:2/4]d d/ d< e d/ | 
B> G A/ B/ A/ F/ | 
G4- | 
G4 | 
d d/ d/ g f | 
[M:3/4]e f g ed2 | 
d d g f e f/ a/ | 
[M:2/4]G4- | 
G4 | 
d d g3/ f/ | 
[M:3/4]e f/ f/ g e d B | 
[M:2/4]d d/ d< e d/ | 
B> G A/ B/ A/ F/ | 
G4- | 
G4 | 
[M:3/4]G Ge2d2 | 
[M:2/4]e/ g/ e/ d/ B B/ B/ | 
A B c d/ c/ | 
[M:3/4]B> G A/ B/ A/ F/G2 | 
G Ge2d2 | 
[M:2/4]e/ g/ e/ d/ B B/ B/ | 
A B c d/ c/ | 
B> G A/ B/ A/ F/ | 
G4- | 
G4 |]  



